!!!OTL: Das Schwabentoechterlein.
!!!OTL-incipit: ES het ein schwab ein toechterlin,
!!!ARE: Europa, Mitteleuropa, Deutschland
!!!YOR: 4, S. 39
!!    1535 gedruckt
!!!SCT: Q0073
!!!YEM: Copyright 1995, estate of Helmut Schaffrath.
**kern	**text
*ICvox	*
!! Irregular meter.
*MX	*
*k[b-]	*
*d:	*
{4a	ES
=1:	=1:
4b-	het
4b-	ein
4cc	ſchwab
4cc	ein
!*M4/4	!
=2:	=2:
4dd	töchter-
4dd	.
2a}	-lin,
{4a	es
=3:	=3:
2dd	wolt
4dd	nit
[4dd	len-
4dd]	.
4a	-ger
=4:	=4:
2dd	die-
2cc}	-nen,
{4a	und
=5:	=5:
4b-	ſie
4b-	wolt
4a	rock
4a	vnnd
=6:	=6:
4g	mantel
4g	.
2d}	han,
{4d	ʒwen
=7:	=7:
4.f	ſchüh
8g	mit
4a	ſchmalen
4b-	.
=8:	=8:
(4.cc	rie-
8b-L	.
8a	.
8gJ	.
2cc	.
8b-L	.
8aJ	.
=9:	=9:
2g)	.
1f	-men.
2r}	.
=10:	=10:
{4.a	O
8b-	du
4cc	ſchö-
4cc	-nes
=11:	=11:
4g	mein
(4f	El-
4d)	.
4e	-ſe-
=11:	=11:
1d;}	-lin.
==	==
!!!AGN: Ballade, Weglaufen, Schwangerschaft, Rueckkehr
!! Letzte Zeile = Refrain.
!!!ONB: ESAC (Essen Associative Code) Database: BALLADE
!!!AMT: irregular
!!!AIN: vox
!!!EED: Helmut Schaffrath
!!!EEV: 1.0
!!!source: Deutsche Volkslieder mit ihren Melodien. Herausgegeben vom Deutschen Volksliedarchiv. Vierter Band. Berlin 1959.
!!!page: 39
!!!ENC: Anna Maria Matuszewska
!!!EEV: 2025/02/21
*-	*-
